Adwaita++/emblems/16/emblem-web.svg

<svg fill="none" height="16" viewBox="0 0 16 16" width="16" xmlns="http://www.w3.org/2000/svg">
  <path d="m13.6 1h-11.2c-.7732 0-1.4.6268-1.4 1.4v11.2c0 .7732.6268 1.4 1.4 1.4h11.2c.7732 0 1.4-.6268 1.4-1.4v-11.2c0-.7732-.6268-1.4-1.4-1.4z" fill="#9a9996"/>
  <path clip-rule="evenodd" d="m7.43951 3.02933c-2.4943.27965-4.43951 2.39965-4.43951 4.96916 0 2.75851 2.24201 5.00151 4.99951 5.00151 2.75799 0 5.00049-2.243 5.00049-5.00151 0-2.53251-1.8915-4.62566-4.33449-4.95311 0 0-.6824-.09037-1.22605-.01605zm.22735.67605v1.6835c-.47737-.01685-.93385-.06745-1.35575-.14721.06336-.14855.12979-.29163.20224-.4221.33398-.6014.73731-.97655 1.15351-1.1142zm.71415.02791c.03755.0062.07569.01058.11298.01744.37608.16465.73751.52195 1.04121 1.06885.07111.12805.13639.26824.19876.41373-.41998.08185-.87605.13498-1.35296.15419zm-2.196.28465c-.105.1429-.2055.2925-.2955.4549-.104.18675-.1965.38905-.282.60015-.23-.0675-.444-.1442-.63945-.2283.35345-.3403.76445-.62035 1.21695-.82675zm3.79806.16745c.42163.1311.74423.39828 1.04823.6593-.183.0788-.3815.15125-.5955.2158-.084-.20645-.1745-.4047-.276-.58765-.0555-.0999-.115-.1946-.17653-.28745zm-5.46752 1.1716c.00745.02679-.0123-.03599-.003-.0086.25756.12025.56376.31241.86576.40285-.15618.55835-.25291 1.1718-.27896 1.82026h-1.45271c.08015-.82901.39335-1.58701.86915-2.21451zm6.97305.006c.4731.62645.7844 1.38205.8641 2.20821h-1.4032c-.0262-.65331-.1242-1.27116-.2824-1.83286.2852-.08745.5694-.25393.8142-.36825.0107-.02516-.0015.01761.0073-.0071zm-1.51478.55185c.14208.5003.23418 1.0604.26078 1.65631h-1.85366v-1.46936c.56111-.02059 1.09716-.08399 1.59286-.18698zm-3.90196.01047c.49686.1003 1.0338.16015 1.59495.17791v1.46796h-1.853c.0265-.59186.11759-1.14816.25804-1.64586zm-2.43256 2.36031h1.45966c.02675.66625.1277 1.2964.29151 1.86698-.32116.0417-.8736.3666-.9021.3826-.56115-.68555-.78785-1.30855-.8489-2.25005zm2.17451 0h1.853v1.51815c-.55645.01757-1.0891.07634-1.5824.17512-.14799-.50955-.24325-1.08285-.27059-1.6933zm2.5671 0h1.85369c-.0275.61455-.1237 1.19165-.27336 1.70375-.49215-.10146-1.02395-.16381-1.58031-.18419zm2.56849 0h1.4102c-.0561.86505-.3118 1.6096-.7967 2.26468-.2269-.1432-.6409-.2926-.9085-.3851.1659-.57388.2681-1.20848.295-1.87953zm-3.28264 2.23258v1.6326c-.416-.138-.8195-.5115-1.1535-1.113-.065-.117-.125-.244-.1825-.376.41649-.0777.8662-.1271 1.3362-.1437zm.71415.0014c.46995.0188.91921.0702 1.33411.15-.05683.1291-.1161.2535-.17993.3684-.33403.6015-.7378.9751-1.15421 1.1128zm-2.7547.3091c.08052.1945.16659.3826.26292.5561.13636.2455.29199.4684.46168.667-.547-.2224-1.0399-.5496-1.44991-.9608.21815-.0977.46176-.1858.72531-.2623zm4.79119.0126c.2466.0734.4747.1574.6806.2497-.3906.3917-.8558.7086-1.37178.93.15892-.1905.30418-.404.43308-.6363.0943-.1697.1789-.3535.258-.5435z" fill="#f6f5f4" fill-rule="evenodd"/>
</svg>

<svg xmlns="http://www.w3.org/2000/svg" fill="none" width="16" height="16" viewBox="0 0 16 16">
 <path fill="url(#paint0_linear)" d="M13.6 1H2.4C1.6268 1 1 1.6268 1 2.4V13.6C1 14.3732 1.6268 15 2.4 15H13.6C14.3732 15 15 14.3732 15 13.6V2.4C15 1.6268 14.3732 1 13.6 1Z"/>
 <path fill="url(#paint1_linear)" fill-rule="evenodd" d="M7.43951 3.02933C4.94521 3.30898 3 5.42898 3 7.99849C3 10.757 5.24201 13 7.99951 13C10.7575 13 13 10.757 13 7.99849C13 5.46598 11.1085 3.37283 8.66551 3.04538C8.66551 3.04538 7.98311 2.95501 7.43946 3.02933H7.43951ZM7.66686 3.70538V5.38888C7.18949 5.37203 6.73301 5.32143 6.31111 5.24167C6.37447 5.09312 6.4409 4.95004 6.51335 4.81957C6.84733 4.21817 7.25066 3.84302 7.66686 3.70537L7.66686 3.70538ZM8.38101 3.73329C8.41856 3.73949 8.4567 3.74387 8.49399 3.75073C8.87007 3.91538 9.2315 4.27268 9.5352 4.81958C9.60631 4.94763 9.67159 5.08782 9.73396 5.23331C9.31398 5.31516 8.85791 5.36829 8.381 5.3875L8.38101 3.73329ZM6.18501 4.01794C6.08001 4.16084 5.97951 4.31044 5.88951 4.47284C5.78551 4.65959 5.69301 4.86189 5.60751 5.07299C5.37751 5.00549 5.16351 4.92879 4.96806 4.84469C5.32151 4.50439 5.73251 4.22434 6.18501 4.01794ZM9.98307 4.18539C10.4047 4.31649 10.7273 4.58367 11.0313 4.84469C10.8483 4.92349 10.6498 4.99594 10.4358 5.06049C10.3518 4.85404 10.2613 4.65579 10.1598 4.47284C10.1043 4.37294 10.0448 4.27824 9.98327 4.18539H9.98307ZM4.51555 5.35699C4.523 5.38378 4.50325 5.321 4.51255 5.34839C4.77011 5.46864 5.07631 5.6608 5.37831 5.75124C5.22213 6.30959 5.1254 6.92304 5.09935 7.5715H3.64664C3.72679 6.74249 4.03999 5.98449 4.51579 5.35699H4.51555ZM11.4886 5.36299C11.9617 5.98944 12.273 6.74504 12.3527 7.5712H10.9495C10.9233 6.91789 10.8253 6.30004 10.6671 5.73834C10.9523 5.65089 11.2365 5.48441 11.4813 5.37009C11.492 5.34493 11.4798 5.3877 11.4886 5.36299L11.4886 5.36299ZM9.97382 5.91484C10.1159 6.41514 10.208 6.97524 10.2346 7.57115H8.38094V6.10179C8.94205 6.0812 9.4781 6.0178 9.9738 5.91481L9.97382 5.91484ZM6.07186 5.92531C6.56872 6.02561 7.10566 6.08546 7.66681 6.10322V7.57118H5.81381C5.84031 6.97932 5.9314 6.42302 6.07185 5.92532L6.07186 5.92531ZM3.6393 8.28562H5.09896C5.12571 8.95187 5.22666 9.58202 5.39047 10.1526C5.06931 10.1943 4.51687 10.5192 4.48837 10.5352C3.92722 9.84965 3.70052 9.22665 3.63947 8.28515L3.6393 8.28562ZM5.81381 8.28562H7.66681V9.80377C7.11036 9.82134 6.57771 9.88011 6.08441 9.97889C5.93642 9.46934 5.84116 8.89604 5.81382 8.28559L5.81381 8.28562ZM8.38091 8.28562H10.2346C10.2071 8.90017 10.1109 9.47727 9.96124 9.98937C9.46909 9.88791 8.93729 9.82556 8.38093 9.80518L8.38091 8.28562ZM10.9494 8.28562H12.3596C12.3035 9.15067 12.0478 9.89522 11.5629 10.5503C11.336 10.4071 10.922 10.2577 10.6544 10.1652C10.8203 9.59132 10.9225 8.95672 10.9494 8.28567L10.9494 8.28562ZM7.66676 10.5182V12.1508C7.25076 12.0128 6.84726 11.6393 6.51326 11.0378C6.44826 10.9208 6.38826 10.7938 6.33076 10.6618C6.74725 10.5841 7.19696 10.5347 7.66696 10.5181L7.66676 10.5182ZM8.38091 10.5196C8.85086 10.5384 9.30012 10.5898 9.71502 10.6696C9.65819 10.7987 9.59892 10.9231 9.53509 11.038C9.20106 11.6395 8.79729 12.0131 8.38088 12.1508L8.38091 10.5196ZM5.62621 10.8287C5.70673 11.0232 5.7928 11.2113 5.88913 11.3848C6.02549 11.6303 6.18112 11.8532 6.35081 12.0518C5.80381 11.8294 5.31091 11.5022 4.9009 11.091C5.11905 10.9933 5.36266 10.9052 5.62621 10.8287V10.8287ZM10.4174 10.8413C10.664 10.9147 10.8921 10.9987 11.098 11.091C10.7074 11.4827 10.2422 11.7996 9.72622 12.021C9.88514 11.8305 10.0304 11.617 10.1593 11.3847C10.2536 11.215 10.3382 11.0312 10.4173 10.8412L10.4174 10.8413Z" clip-rule="evenodd"/>
 <defs>
  <linearGradient id="paint0_linear" x1="1" x2="15" y1="8" y2="8" gradientUnits="userSpaceOnUse">
   <stop stop-color="#9A9996"/>
  </linearGradient>
  <linearGradient id="paint1_linear" x1="3" x2="13" y1="8" y2="8" gradientUnits="userSpaceOnUse">
   <stop stop-color="#F6F5F4"/>
  </linearGradient>
 </defs>
</svg>
